X:1
T:Title
%%score { ( 1 3 ) | ( 2 4 ) }
L:1/8
M:3/4
K:C
V:1 treble nm="Grand Piano"
V:3 treble 
V:2 bass 
V:4 bass 
V:1
 z2 z2[Q:1/4=92] [EG]>[FA] | [EG]3 [Gc] [GB]>A | A4 A>A | [FB]3 A G>A |[M:2/4] [EG]4 | %5
[M:1/4] [EG]>[FA] |[M:3/4] [EG]3 [Gc] [GB]>[FA] | [FA]4 [^FA]>[FB] | [^Fc]2 [FB]2 [Fc]>[Fe] | %9
[M:2/4] [Gd]4 |[M:1/4] [Gd]>[Ad] |[M:3/4] [^Ge]3 d c>B | A4 A>A | [^Fd]3 [EFc] [DFB]>[CFA] | %14
[M:2/4] [B,G]4 |[M:1/4] [Ge]>[Gd] |[M:3/4] [Gc]3 G A>[Ac] | [Ac]4 [GB]>A | %18
[M:27/32] z/4 z/4 z/4 z/4 z/4 z/4 z/4 z/4 z/4 z/4 z/4 z/4 z/4 z/4 z/ d/4-d/4-d/4-d/4-d/4-d/4-d/-<d/ z/4 | %19
[M:2/4] [Ec]4 |] %20
V:2
 z2 z2 [C,C]>[C,C] | [C,C]3 [E,C] [F,C]>[F,CF] | [F,CF]4 [F,CF]>[F,CF] | %3
 [D,D]3[K:treble] [G,CF] [G,B,F]>[G,B,F] |[M:2/4][K:bass] [C,C]4 |[M:1/4] [C,C]>[C,C] | %6
[M:3/4] [C,C]3 [E,C] [F,C]>[F,C] | [F,C]4 [D,C]>[D,B,] | [D,A,]2 [D,D]2 [D,D]>[D,C] | %9
[M:2/4] [G,B,]4 |[M:1/4] [F,B,]>[F,A,] |[M:3/4] [E,B,]3 [E,^G,E] [E,G,E]>[E,G,D] | %12
 [A,C]4 [D,^F,D]>[D,F,D] | [D,A,]3 D, D,>D, |[M:2/4] G,4 |[M:1/4] [C,C]>[D,B,] | %16
[M:3/4] [E,C]3 [E,C] [F,CF]>[F,C] | [F,C]4 [F,C]>[F,CF] | %18
[M:27/32] [G,CE]/4-[G,CE]/4-[G,CE]/4-[G,CE]/4-[G,CE]/-<[G,CE]/[G,CE]/4-[G,CE]/4-[G,CE]/4-[G,CE]/4-[G,CE]/-<[G,CE]/ z/4 z/4 z/4 z/4 z/4 z/4 z/ [C,G,]3/4 | %19
[M:2/4] [C,G,]4 |] %20
V:3
 x6 | x6 | x6 | x6 |[M:2/4] x4 |[M:1/4] x2 |[M:3/4] x6 | x6 | x6 |[M:2/4] x4 |[M:1/4] x2 | %11
[M:3/4] x6 | x6 | x6 |[M:2/4] x4 |[M:1/4] x2 |[M:3/4] x6 | x6 | %18
[M:27/32] G/4-G/4-G/4-G/4-G/-<G/c/4-c/4-c/4-c/4-c/-<c/ z/4 z/4 z/4 z/4 z/4 z/4 z/ [Ec]3/4 | %19
[M:2/4] x4 |] %20
V:4
 x6 | x6 | x6 | x3[K:treble] x3 |[M:2/4][K:bass] x4 |[M:1/4] x2 |[M:3/4] x6 | x6 | x6 |[M:2/4] x4 | %10
[M:1/4] x2 |[M:3/4] x6 | x6 | x6 |[M:2/4] x4 |[M:1/4] x2 |[M:3/4] x6 | x6 | %18
[M:27/32] z/4 z/4 z/4 z/4 z/4 z/4 z/4 z/4 z/4 z/4 z/4 z/4 z/4 z/4 z/ [G,,B,F]/4-[G,,B,F]/4-[G,,B,F]/4-[G,,B,F]/4-[G,,B,F]/4-[G,,B,F]/4-[G,,B,F]/-<[G,,B,F]/ z/4 | %19
[M:2/4] x4 |] %20

